32x32/actions/align-horizontal-right.svg

<svg xmlns="http://www.w3.org/2000/svg" viewBox="0 0 32 32"><path style="fill:currentColor;fill-opacity:1;stroke:none;color:#555e70" d="M4 4v10h20V4H4zm22 0v24h2V4h-2zM5 5h18v8H5V5zm9 13v10h10V18H14zm1 1h8v8h-8v-8z"/></svg>

<svg xmlns="http://www.w3.org/2000/svg" viewBox="0 0 32 32">
  <defs
     id="defs3051">
    <style
       type="text/css"
       id="current-color-scheme">
      .ColorScheme-Text {
        color:#555e70;
      }
      </style>
  </defs>
  <path
     style="fill:currentColor;fill-opacity:1;stroke:none" 
     d="M 4 4 L 4 14 L 24 14 L 24 4 L 4 4 z M 26 4 L 26 28 L 28 28 L 28 4 L 26 4 z M 5 5 L 23 5 L 23 13 L 5 13 L 5 5 z M 14 18 L 14 28 L 24 28 L 24 18 L 14 18 z M 15 19 L 23 19 L 23 27 L 15 27 L 15 19 z "
     id="path8" 
     class="ColorScheme-Text"
     />
</svg>
